X:1
T:In ligno moriens
T:Daniel Friderici
T:Source : Bicinia sacra---Rostock---J.Richelius---1642. Editor : André Vierendeels (04/07/17).
T:Notes : Original clefs : C1, C1 Editorial accidentals above the staff
T:In ligno moriens
T:©
T:©
C:Daniel Friderici
Z:©
%%score [ 1 2 ]
L:1/8
Q:1/4=120
M:2/2
K:C
V:1 treble nm="Soprano 1" snm="S 1"
V:2 treble nm="Soprano 2" snm="S 2"
V:1
 E8 | F8- | F4 E4 | A6 A2 | ^G8 | A2 B2 c2 AB | c8- | c8 | B4 E4 | F8- | F4 F4 | E8 | e6 d2 | %13
w: In|li-|* gno|mo- ri-|ens,|li- * * * *|||gni dis-|pen-|* di-|a|sol- *|
 c2 B2 A4 | B4 c4- | c2 B2 A2 ^G2 | A4 E4 | z4 e4- | e2 d2 c2 B2 | A2 B2 c2 d2 | e2 d2 e2 d2 | %21
w: |vit, sol-||* vit,|sol-||||
 c2 B2 A2 ^G2 | A2 ^G2 A4 | B8 :: B4 B2 B2 | c4 B2 E2 | E2 E2 A4 | E2 D3 G G2 | G2 A2 E4 | %29
w: ||vit:|Hic pen- det|cul- pae, hic|pen- det cul-|pae Syn- gra- pha|cas- sa tu-|
 A2 d3 d d2 | d2 c2 B4 | A8 :| %32
w: ae, Syn- gra- pha|cas- sa tu-|ae.|
V:2
 z8 | z8 | z8 | z8 | E8 | F8- | F4 E4 | A6 A2 | ^G8 | A2 B2 c2 AB | c6 BA | B8 | A4 E4 | F6 F2 | %14
w: ||||In|li-|* gno|mo- ri-|ens|li- * * * *|||gni dis-|pen- di-|
 E4 e4- | e2 d2 c2 B2 | A4 B4 | z4 c2 B2 | A2 B2 c2 d2 | e2 d2 c2 B2 | A2 B2 c2 B2 | A2 G2 F2 E2 | %22
w: a sol-||* vit,|sol- *|||||
 D2 E2 F4 | E8 :: E4 E2 E2 | A4 E2 B2 | B2 B2 c4 | B2 d3 d d2 | d2 c2 B4 | A2 G3 G G2 | G2 A2 E4 | %31
w: |vit:|Hic pen- det|cul- pae, hic|pen- det cul-|pae Syn- gra- pha|cas- sa tu-|ae, Syn- gra- pha|cas- sa tu-|
 A8 :| %32
w: ae.|

